X:1
T:Into My Heart
T:Into My Heart
T:내 맘 속에
T:Harry D. Clarke
T:Arr. YJ
C:Harry D. Clarke
Z:YJ
%%score { 1 | 2 }
L:1/8
M:3/4
K:Eb
V:1 treble nm="Piano" snm="Pno."
V:2 bass 
V:1
 [EG]3 [EG] [EG]2 | [B,E]6 | [EG]3 [EG] [EG]2 | [B,E]4 [EG]2 | [FB]3 [DA] [DG]2 | [DF]4 [DA]2 | %6
w: 내 맘 속|에|내 맘 속|에 들|어 오 세|요 예|
 A6 | [EG]4 [EB]2 | [Ec]4 [Ec]2 | [EB]4 E2 | [EA]4 [DA]2 | [EG]4 B,2 | C2 [B,D]2 [B,E]2 | %13
w: 수|님 오|늘- *|도 내|일- *|도 들|어 오 세|
 [EA]4 [EG]2 | F6 | [B,E]6 | [EG]3 [EG] [EG]2 | [B,E]6 | [EG]3 [EG] [EG]2 | [B,E]4 [EG]2 | %20
w: 요 예|수|님|In to my|heart,|in to my|heart, come|
 [FB]3 [DA] [DG]2 | [DF]4 [DA]2 | A6 | [EG]4 [EB]2 | [Ec]4 [Ec]2 | [EB]4 E2 | [EA]4 [DA]2 | %27
w: in to my|heart, Lord|Je-|sus, Come|in to-|day, Come|in to|
 [EG]4 B,2 | C2 [B,D]2 [B,E]2 | [EA]4 [EG]2 | F6 | [B,E]6 ||[K:F] [FA]3 [FA] [FA]2 | [CF]6 | %34
w: stay, Come|in- to my|heart, Lord|Je-|sus.|내 맘 속|에|
 [FA]3 [FA] [FA]2 | [CF]4 [FA]2 | [Gc]3 [EB] [EA]2 | [EG]4 [EB]2 | B6 | [FA]4 [Fc]2 | [Fd]4 [Fd]2 | %41
w: 내 맘 속|에 들|어 오 세|요 예|수|님 오|늘- *|
 [Fc]4 F2 | [FB]4 [EB]2 | [FA]4 C2 | D2 [CE]2 [CF]2 | [FB]4 [FA]2 | G6 | [CF]6 |] %48
w: 도 내|일- *|도 들|어 오 세|요 예|수|님|
V:2
 [E,B,]3 [E,B,] [E,B,]2 | [E,G,]6 | [E,B,]3 [E,B,] [E,B,]2 | [E,G,]4 [E,B,]2 | %4
 [B,,D]3 [B,,C] [B,,B,]2 | [B,,A,]4 [B,,C]2 | D6 | [E,B,]4 [G,,B,]2 | [A,,A,]4 [=A,,^F,]2 | %9
 [B,,G,]4 [C,G,]2 | [F,,C]4 [B,,B,]2 | [E,B,]4 G,2 | A,2 A,2 [G,B,]2 | C4 [G,,B,]2 | %14
 [A,,C]2 B,2 A,2 | [E,G,]6 | [E,B,]3 [E,B,] [E,B,]2 | [E,G,]6 | [E,B,]3 [E,B,] [E,B,]2 | %19
 [E,G,]4 [E,B,]2 | [B,,D]3 [B,,C] [B,,B,]2 | [B,,A,]4 [B,,C]2 | D6 | [E,B,]4 [G,,B,]2 | %24
 [A,,A,]4 [=A,,^F,]2 | [B,,G,]4 [C,G,]2 | [F,,C]4 [B,,B,]2 | [E,B,]4 G,2 | A,2 A,2 [G,B,]2 | %29
 C4 [G,,B,]2 | [A,,C]2 B,2 A,2 | [E,G,]6 ||[K:F] [F,C]3 [F,C] [F,C]2 | [F,A,]6 | %34
 [F,C]3 [F,C] [F,C]2 | [F,A,]4 [F,C]2 | [C,E]3 [C,D] [C,C]2 | [C,B,]4 [C,D]2 | E6 | %39
 [F,C]4 [A,,C]2 | [B,,B,]4 [=B,,^G,]2 | [C,A,]4 [D,A,]2 | [G,,D]4 [C,C]2 | [F,C]4 A,2 | %44
 B,2 B,2 [A,C]2 | D4 [A,,C]2 | [B,,D]2 C2 B,2 | [F,A,]6 |] %48

